X: 1
T:She Moved Through The Fair  "CYMRU"
M:3/4
L:1/8
Q:80
C:Trad.
S:Slow Air
K:HP
[| {g}A3/4B/4c|
{g}d4{g}c3/2d/2|
{g}e4{g}dB|  !
{g}G2{d}A3{d}B|
{g}A4{g}e3/2f/2| |
{a}g2a3e|  !
{g}f{g}e4c|
{g}d4{g}c3/2d/2|
{g}e4{g}e3/2f/2| |  !
{a}g2a3e|
{g}f{g}e4c|
{g}d4{g}c3/2d/2|  !
{g}e4{g}A3/2B/2c| |
d4{g}c3/2d/2|
{g}e4{g}dB|  !
{g}G2{d}A3{d}B|
{g}A4|]
